public/svgs/solid/mobile-notch.svg

<svg xmlns="http://www.w3.org/2000/svg" viewBox="0 0 384 512"><!-- Font Awesome Pro 6.0.0-alpha2 by @fontawesome - https://fontawesome.com License - https://fontawesome.com/license (Commercial License) --><path d="M240 384H144C135.164 384 128 391.162 128 400C128 408.836 135.164 416 144 416H240C248.838 416 256 408.836 256 400C256 391.162 248.838 384 240 384ZM288 0H96C51.818 0 16 35.816 16 80V432C16 476.182 51.818 512 96 512H288C332.184 512 368 476.182 368 432V80C368 35.816 332.184 0 288 0ZM304 432C304 440.822 296.822 448 288 448H96C87.178 448 80 440.822 80 432V80C80 71.178 87.178 64 96 64H128V80C128 88.836 135.164 96 144 96H240C248.838 96 256 88.836 256 80V64H288C296.822 64 304 71.178 304 80V432Z"/></svg>

<svg xmlns="http://www.w3.org/2000/svg" viewBox="0 0 384 512"><!--! Font Awesome Pro 6.5.1 by @fontawesome - https://fontawesome.com License - https://fontawesome.com/license (Commercial License) Copyright 2023 Fonticons, Inc. --><path d="M128 64V80c0 8.8 7.2 16 16 16h96c8.8 0 16-7.2 16-16V64h32c8.8 0 16 7.2 16 16V432c0 8.8-7.2 16-16 16H96c-8.8 0-16-7.2-16-16V80c0-8.8 7.2-16 16-16h32zM96 0C51.8 0 16 35.8 16 80V432c0 44.2 35.8 80 80 80H288c44.2 0 80-35.8 80-80V80c0-44.2-35.8-80-80-80H96zm32 400c0 8.8 7.2 16 16 16h96c8.8 0 16-7.2 16-16s-7.2-16-16-16H144c-8.8 0-16 7.2-16 16z"/></svg>
